src/img/socials-1.svg

<svg xmlns="http://www.w3.org/2000/svg" width="54" height="54" viewBox="0 0 54 54"><defs><clipPath id="rgn2a"><path fill="#fff" d="M27 0c14.912 0 27 12.088 27 27 0 14.911-12.088 27-27 27S0 41.911 0 27C0 12.088 12.088 0 27 0z"/></clipPath></defs><g><g><path fill="#222" d="M27 0c14.912 0 27 12.088 27 27 0 14.911-12.088 27-27 27S0 41.911 0 27C0 12.088 12.088 0 27 0z"/><path fill="none" stroke="#17bebb" stroke-miterlimit="20" stroke-width="2" d="M27 0v0c14.912 0 27 12.088 27 27v0c0 14.911-12.088 27-27 27v0C12.088 54 0 41.911 0 27v0C0 12.088 12.088 0 27 0z" clip-path="url(&quot;#rgn2a&quot;)"/></g><g><path fill="#17bebb" d="M35.797 22.744c-.258 1.18-2.727 4.658-2.727 4.658-.214.344-.3.516 0 .902.215.3.923.901 1.396 1.46.87.98 1.526 1.806 1.709 2.374.167.572-.123.86-.701.86h-2.027c-.773 0-1-.615-2.373-1.99-1.202-1.159-1.717-1.308-2.018-1.308-.408 0-.53.115-.53.694v1.817c0 .499-.16.788-1.447.788-2.147 0-4.506-1.303-6.18-3.708-2.512-3.52-3.2-6.182-3.2-6.719 0-.3.116-.573.695-.573h2.027c.517 0 .712.227.907.788.99 2.887 2.662 5.41 3.348 5.41.258 0 .377-.119.377-.773V24.44c-.076-1.374-.806-1.486-.806-1.975 0-.227.194-.466.516-.466h3.184c.43 0 .572.23.572.745v4.014c0 .43.193.58.322.58.258 0 .473-.15.945-.622 1.46-1.632 2.49-4.144 2.49-4.144.129-.3.366-.573.882-.573h2.026c.613 0 .741.316.613.745z"/></g></g></svg>

<?xml version="1.0" encoding="UTF-8"?>
<svg width="56px" height="56px" viewBox="0 0 56 56" version="1.1" xmlns="http://www.w3.org/2000/svg" xmlns:xlink="http://www.w3.org/1999/xlink">
    <title>Untitled</title>
    <g id="Page-1" stroke="none" stroke-width="1" fill="none" fill-rule="evenodd">
        <g id="socials-1-1" transform="translate(1.000000, 1.000000)">
            <g id="Group">
                <path d="M27,0 C41.912,0 54,12.088 54,27 C54,41.911 41.912,54 27,54 C12.088,54 0,41.911 0,27 C0,12.088 12.088,0 27,0 Z" id="Path"></path>
                <path d="M27,0 L27,0 C41.912,0 54,12.088 54,27 L54,27 C54,41.911 41.912,54 27,54 L27,54 C12.088,54 0,41.911 0,27 L0,27 C0,12.088 12.088,0 27,0 Z" id="Path" stroke="#444444"></path>
            </g>
            <path d="M35.797,22.744 C35.539,23.924 33.07,27.402 33.07,27.402 C32.856,27.746 32.77,27.918 33.07,28.304 C33.285,28.604 33.993,29.205 34.466,29.764 C35.336,30.744 35.992,31.57 36.175,32.138 C36.342,32.71 36.052,32.998 35.474,32.998 L33.447,32.998 C32.674,32.998 32.447,32.383 31.074,31.008 C29.872,29.849 29.357,29.7 29.056,29.7 C28.648,29.7 28.526,29.815 28.526,30.394 L28.526,32.211 C28.526,32.71 28.366,32.999 27.079,32.999 C24.932,32.999 22.573,31.696 20.899,29.291 C18.387,25.771 17.699,23.109 17.699,22.572 C17.699,22.272 17.815,21.999 18.394,21.999 L20.421,21.999 C20.938,21.999 21.133,22.226 21.328,22.787 C22.318,25.674 23.99,28.197 24.676,28.197 C24.934,28.197 25.053,28.078 25.053,27.424 L25.053,24.44 C24.977,23.066 24.247,22.954 24.247,22.465 C24.247,22.238 24.441,21.999 24.763,21.999 L27.947,21.999 C28.377,21.999 28.519,22.229 28.519,22.744 L28.519,26.758 C28.519,27.188 28.712,27.338 28.841,27.338 C29.099,27.338 29.314,27.188 29.786,26.716 C31.246,25.084 32.276,22.572 32.276,22.572 C32.405,22.272 32.642,21.999 33.158,21.999 L35.184,21.999 C35.797,21.999 35.925,22.315 35.797,22.744 L35.797,22.744 Z" id="Path" fill="#444444" fill-rule="nonzero"></path>
        </g>
    </g>
</svg>
